X:1
T:Title
%%score { ( 1 3 4 ) | ( 2 5 ) }
L:1/8
M:3/4
K:Eb
V:1 treble nm="Grand Piano"
V:3 treble 
V:4 treble 
V:2 treble 
V:5 treble 
V:1
 z2 z[Q:1/4=90] B GA | [GB]3 [Ge] [Bd][Ac] | [GB]3 G FG | [FA]3 [Ac] [GB][FA] |[M:3/8] G3 | BGA | %6
[M:3/4] [GB]3 [Ge] [Bd][Ac] | [GB]3 e Bc |[M:13/16] d/-d/-d-<d z/ z/ z/ z/ z/ z |[M:3/4] [DB]6 | %10
[M:1/4] B2 |[M:3/4] [Ge]>[Ge] [Ge][Gd] [Gc][EG] | [DA]4 z2 | [Ad]>[Ad] [Ad][Ac] [GB][FA] | %14
[M:2/4] [EG]4 |[M:1/4] [B,GB]2 |[M:3/4] [Ge]>[Ge] [Ge][Gd] [Gc][_DG] | [FA]4 z2 | B4 G2 | %19
[M:7/16] [DF]>EE3/2 |] %20
V:2
 z2 z G EF | E,B, EB, CD | EB, E,E DE | B,,F, B,B,, C,D, |[M:3/8] E,B,[K:treble]E | GEF | %6
[M:3/4][K:bass] E,B, EB, CD | EB, E,[K:treble]G G_G | %8
[M:13/16][K:bass] F-[F,F-]FD[F,=A,E]3/2[B,,B,] |[M:3/4] [B,,B,]6 |[M:1/4] [B,A]2 | %11
[M:3/4] [E,B,]>[E,B,] [E,B,]2 [E,B,]2 | [F,B,]F, F,2 D,2 | [B,,B,]>[B,,B,] [B,,B,]2 [B,,B,]2 | %14
[M:2/4] [E,B,]E, E,2 |[M:1/4] E,2 |[M:3/4] [E,B,]>[E,B,] [E,B,]2 [E,B,]=E, | %17
 F,F, F,[K:treble][F,CF] [A,CF][A,_G] | [B,EG]4 [B,E]2 | %19
[M:7/16][K:bass] [B,,A,]>[E,G,B,][E,G,B,]3/2 |] %20
V:3
 x6 | x6 | x6 | x6 |[M:3/8] E2 z | x3 |[M:3/4] x6 | x6 |[M:13/16] z B, z Fc3/2[DB] |[M:3/4] x6 | %10
[M:1/4] x2 |[M:3/4] x6 | z C B,2 [B,FA]2 | x6 |[M:2/4] z C B,2 |[M:1/4] x2 |[M:3/4] x6 | %17
 C=B, CA dc | x6 |[M:7/16] x7/2 |] %20
V:4
 x6 | x6 | x6 | x6 |[M:3/8] x3 | x3 |[M:3/4] x6 | x6 |[M:13/16] z/ z/ z B,-<B, z/ z/ z/ z | %9
[M:3/4] x6 |[M:1/4] x2 |[M:3/4] x6 | x6 | x6 |[M:2/4] x4 |[M:1/4] x2 |[M:3/4] x6 | x6 | x6 | %19
[M:7/16] x7/2 |] %20
V:5
 x6 | x6 | x6 | x6 |[M:3/8] x2[K:treble] x | x3 |[M:3/4][K:bass] x6 | x3[K:treble] x3 | %8
[M:13/16][K:bass] .[F,B,]3/2 z/ F,-<F, z/ z/ z/ z |[M:3/4] x6 |[M:1/4] x2 |[M:3/4] x6 | x6 | x6 | %14
[M:2/4] x4 |[M:1/4] x2 |[M:3/4] x6 | x3[K:treble] x3 | x6 |[M:7/16][K:bass] x7/2 |] %20

